public/payments/crypto/litecoin.svg

<svg width="16" height="21" viewBox="0 0 16 21" fill="none" xmlns="http://www.w3.org/2000/svg">
<mask id="mask0_139_9" style="mask-type:luminance" maskUnits="userSpaceOnUse" x="1" y="4" width="14" height="15">
<path d="M15 4H1V18.2545H15V4Z" fill="white"/>
</mask>
<g mask="url(#mask0_139_9)">
<path d="M8.00006 17.4831C11.4476 17.4831 14.2424 14.6375 14.2424 11.1273C14.2424 7.61701 11.4476 4.77139 8.00006 4.77139C4.5525 4.77139 1.75769 7.61701 1.75769 11.1273C1.75769 14.6375 4.5525 17.4831 8.00006 17.4831Z" fill="white"/>
<path d="M8 4C6.61553 4 5.26216 4.41801 4.11101 5.20116C2.95987 5.98432 2.06266 7.09745 1.53284 8.3998C1.00303 9.70213 0.86441 11.1352 1.13451 12.5177C1.4046 13.9003 2.07129 15.1703 3.05026 16.167C4.02922 17.1638 5.27651 17.8426 6.63439 18.1176C7.99226 18.3926 9.39969 18.2515 10.6788 17.712C11.9579 17.1726 13.0511 16.259 13.8203 15.087C14.5894 13.9149 15 12.5369 15 11.1273C15.0027 10.194 14.8248 9.26937 14.4765 8.40612C14.1282 7.54288 13.6163 6.75793 12.9701 6.0961C12.3239 5.43427 11.5559 4.90852 10.7101 4.54887C9.86436 4.18922 8.95725 4.00272 8.04069 4H8ZM8.11865 11.3689L7.38982 13.8712H11.2881C11.314 13.8702 11.3397 13.8745 11.3639 13.8837C11.3881 13.893 11.4103 13.907 11.4292 13.9249C11.4481 13.9429 11.4633 13.9644 11.474 13.9884C11.4847 14.0123 11.4906 14.0382 11.4915 14.0645V14.13L11.1525 15.3208C11.1376 15.3771 11.1043 15.4266 11.0581 15.4611C11.0119 15.4956 10.9555 15.513 10.8983 15.5106H4.93221L5.9322 12.0419L4.81356 12.3871L5.0678 11.5932L6.18643 11.2481L7.59321 6.38151C7.6087 6.32551 7.64217 6.27641 7.68824 6.242C7.73431 6.2076 7.79035 6.18989 7.84744 6.19168H9.35594C9.38176 6.19076 9.40752 6.19503 9.43172 6.20424C9.45591 6.21346 9.47809 6.22744 9.49699 6.24539C9.51585 6.26335 9.53112 6.28491 9.54179 6.30886C9.55251 6.33281 9.55846 6.35867 9.55934 6.38496V6.45054L8.37288 10.5578L9.49153 10.2126L9.25423 11.041L8.11865 11.3689Z" fill="#345D9D"/>
</g>
</svg>

<svg xmlns="http://www.w3.org/2000/svg" width="16" height="21" fill="none"><mask id="a" width="14" height="15" x="1" y="4" maskUnits="userSpaceOnUse" style="mask-type:luminance"><path fill="#fff" d="M15 4H1v14.25h14V4Z"/></mask><g mask="url(#a)"><path fill="#fff" d="M8 17.48a6.3 6.3 0 0 0 6.24-6.35A6.3 6.3 0 0 0 8 4.77a6.3 6.3 0 0 0-6.24 6.36A6.3 6.3 0 0 0 8 17.48Z"/><path fill="#345D9D" d="M8 4c-1.38 0-2.74.42-3.89 1.2a7.25 7.25 0 0 0-1.06 10.97 6.96 6.96 0 0 0 7.63 1.54 7.03 7.03 0 0 0 3.14-2.62 7.22 7.22 0 0 0-3.11-10.54A6.87 6.87 0 0 0 8.04 4H8Zm.12 7.37-.73 2.5h3.9a.2.2 0 0 1 .14.05.2.2 0 0 1 .06.14v.07l-.34 1.2a.26.26 0 0 1-.1.13.25.25 0 0 1-.15.05H4.93l1-3.47-1.12.35.26-.8 1.12-.34 1.4-4.87c.02-.05.05-.1.1-.14.04-.03.1-.05.16-.05h1.5a.2.2 0 0 1 .2.12.2.2 0 0 1 0 .07v.07l-1.18 4.1 1.12-.34-.24.83-1.13.33Z"/></g></svg>
